X:1
T:Title
%%score 1 2
L:1/8
Q:1/4=90
M:6/8
K:Bb
V:1 treble nm="Grand Piano, Soprano"
V:2 bass nm="Choir Pad, Bass"
V:1
 [DF][DF][DG] [DA][DB][DA] | [DB] [_DG]2- [DG] .[=DF]2 | [DF][DF][DG] [DA][DB][DA] | %3
w: By~Florence~W.~Williams * * * * *|||
 [DB] [EG]2- [EG]3/2 z/ z | [EG][EF][EF] [EG][EA][EB] | [Ec] [Fd]2- [Fd] .[DB]2 | %6
w: |||
 [DA][=EG][EG] [EA][EB][EA] | [=EB] [_Ec]2- [Ec]2- [Ec]/ z/ | z [Fd]2- [Fd] [Ge]2- | %9
w: |||
 [Ge] [Fd]2- [Fd] [Ec]2- | [Ec] [D=B]2 [Ec] [Fd]2 | [Ec] [DB]2- [DB] [DF]2 | z [EG]2- [EG] [GB]2- | %13
w: ||||
 [GB] [Fd]2- [Fd] [DB]2- | [DB] [Gd]2 [Gc] [FB]2 | [EA] [DB]2- [DB]3- | [DB]3 z3 |] %17
w: ||||
V:2
 [B,,F,][B,,F,][B,,F,] [B,,F,][B,,F,][B,,F,] | [B,,F,] [B,,=E,]2- [B,,E,] .[B,,F,]2 | %2
 [B,,B,][B,,B,][B,,B,] [B,,B,][B,,B,][B,,B,] | [B,,B,] [E,B,]2- [E,B,]3/2 z/ z | %4
 [E,B,][F,A,][F,A,] [F,A,][F,C][F,B,] | [F,A,] [B,,B,]2- [B,,B,] .[B,,F,]2 | %6
 [B,,F,][C,B,][C,B,] [C,A,][C,G,][C,G,] | [C,G,] [F,A,]2- [F,A,]2- [F,A,]/ z/ | %8
 z [B,,B,]2- [B,,B,] [B,,B,]2- | [B,,B,] [F,A,]2- [F,A,] [F,A,]2- | %10
 [F,A,] [F,_A,]2 [F,=A,] [F,A,]2 | [F,A,] [B,,B,]2- [B,,B,] [B,,B,]2 | z [E,B,]2- [E,B,] [E,B,]2- | %13
 [E,B,] [B,,B,]2- [B,,B,] [B,,B,]2- | [B,,B,] [E,B,]2 [E,E] [F,D]2 | [F,C] [B,,B,]2- [B,,B,]3- | %16
 [B,,B,]3 z3 |] %17

